src/assets/images/icon-clock.svg

<svg width="80" height="80" viewBox="0 0 80 80" fill="none" xmlns="http://www.w3.org/2000/svg">
<path d="M36.6667 23.3333V43.3333L54 53.6666L56.6667 49.6666L41.6667 40.6666V23.3333H36.6667ZM66.6667 40V60H73.3334V40H66.6667ZM66.6667 66.6666V73.3333H73.3334V66.6666H66.6667ZM60 66.6666C54.3334 71 47.6667 73.3333 40 73.3333C21.6667 73.3333 6.66669 58.3333 6.66669 40C6.66669 21.6666 21.6667 6.66663 40 6.66663C56 6.66663 69.6667 18 72.6667 33.3333H65.6667C62.6667 22 52.3334 13.3333 40 13.3333C25.3334 13.3333 13.3334 25.3333 13.3334 40C13.3334 54.6666 25.3334 66.6666 40 66.6666C48 66.6666 55 63 60 57.6666V66.6666Z" fill="white"/>
</svg>

<svg xmlns="http://www.w3.org/2000/svg" width="80" height="80" fill="none"><path fill="#fff" d="M36.667 23.333v20L54 53.667l2.667-4-15-9V23.333h-5Zm30 16.667v20h6.666V40h-6.666Zm0 26.667v6.666h6.666v-6.666h-6.666Zm-6.667 0C54.333 71 47.667 73.333 40 73.333c-18.333 0-33.333-15-33.333-33.333S21.667 6.667 40 6.667c16 0 29.667 11.333 32.667 26.666h-7c-3-11.333-13.334-20-25.667-20-14.667 0-26.667 12-26.667 26.667 0 14.667 12 26.667 26.667 26.667 8 0 15-3.667 20-9v9Z"/></svg>
